X: 029
M: 6/8
L: 1/8
K: D
|: A |\
d2d dcd | e2A A2c/d/ | e2e ede | f2d d2f |\
efd cdB | {B}A3- A2F/G/ |

